X: 4
T: Now the Day is Over
M:C
L: 1/4
Q: 1/2=100
K: C
 GGGG | G2G2 | AA^G(A/2B/2) | A2c2 | c3/2c/2BA | =G2G2 | G3/2G/2GG | G4 |]
